polaris-icons/icons/new-icons/MinimizeMajor.svg

<svg width="20" height="20" viewBox="0 0 20 20" fill="none" xmlns="http://www.w3.org/2000/svg">
<path d="M13.75 9.5C14.1642 9.5 14.5 9.16421 14.5 8.75C14.5 8.33579 14.1642 8 13.75 8H13.0607L16.2803 4.78033C16.5732 4.48744 16.5732 4.01256 16.2803 3.71967C15.9874 3.42678 15.5126 3.42678 15.2197 3.71967L12 6.93934V6.25C12 5.83579 11.6642 5.5 11.25 5.5C10.8358 5.5 10.5 5.83579 10.5 6.25L10.5 8.75C10.5 9.16421 10.8358 9.5 11.25 9.5H13.75Z" fill="#4A4A4A"/>
<path d="M6.25 10.5C5.83579 10.5 5.5 10.8358 5.5 11.25C5.5 11.6642 5.83579 12 6.25 12H6.93934L3.71967 15.2197C3.42678 15.5126 3.42678 15.9874 3.71967 16.2803C4.01256 16.5732 4.48744 16.5732 4.78033 16.2803L8 13.0607V13.75C8 14.1642 8.33579 14.5 8.75 14.5C9.16421 14.5 9.5 14.1642 9.5 13.75V11.25C9.5 10.8358 9.16421 10.5 8.75 10.5H6.25Z" fill="#4A4A4A"/>
</svg>

<svg viewBox="0 0 20 20" xmlns="http://www.w3.org/2000/svg"><path d="M13.75 9.5a.75.75 0 0 0 0-1.5h-.69l3.22-3.22a.75.75 0 0 0-1.06-1.06l-3.22 3.22v-.69a.75.75 0 0 0-1.5 0v2.5c0 .414.336.75.75.75h2.5Z" fill="#5C5F62"/><path d="M6.25 10.5a.75.75 0 0 0 0 1.5h.69l-3.22 3.22a.75.75 0 1 0 1.06 1.06l3.22-3.22v.69a.75.75 0 0 0 1.5 0v-2.5a.75.75 0 0 0-.75-.75h-2.5Z" fill="#5C5F62"/></svg>
